docs/img/vk.svg

<svg width="60" height="61" viewBox="0 0 60 61" fill="none" xmlns="http://www.w3.org/2000/svg">
<circle cx="30.0567" cy="30.0563" r="23.4815" fill="white"/>
<path fill-rule="evenodd" clip-rule="evenodd" d="M27.9895 0.0279757C23.7946 0.34028 19.6349 1.52386 16.0139 3.43514C8.8409 7.2213 3.40259 13.8628 1.16198 21.5726C0.328976 24.4391 0 26.8283 0 30.0102C0 33.1921 0.328976 35.5813 1.16198 38.4478C3.48923 46.4561 9.25018 53.2834 16.7771 56.9533C17.7457 57.4257 18.9873 57.9738 19.5361 58.1717C25.6005 60.3569 31.9345 60.6195 38.0278 58.9386C46.225 56.6773 53.1717 50.9006 56.9287 43.2215C58.2423 40.5364 59.0942 37.9354 59.564 35.1761C60.8623 27.5495 59.2363 19.7787 55.019 13.4557C50.1412 6.1422 42.7252 1.48747 33.9773 0.248467C32.726 0.0711817 29.168 -0.0597276 27.9895 0.0279757ZM31.842 20.3962C32.5227 20.5419 32.8591 20.7813 33.1113 21.2996C33.3012 21.69 33.3226 22.1289 33.3268 25.7248C33.331 29.3216 33.3522 29.7545 33.54 30.0983C33.9299 30.8119 34.3716 30.6171 35.5348 29.2188C37.0053 27.451 38.2374 25.365 39.253 22.9236C39.6936 21.8644 39.8705 21.57 40.1997 21.3481L40.6046 21.0753L44.327 21.1106C47.8953 21.1445 48.0631 21.1562 48.3807 21.3924C49.29 22.0689 48.5985 23.7495 45.8975 27.4272C42.745 31.7199 42.5575 32.0301 42.7215 32.6835C42.7681 32.8688 43.6483 33.8572 44.8859 35.1134C46.9029 37.1609 48.2802 38.8213 48.611 39.6045C48.8798 40.2407 48.8166 40.855 48.4409 41.2571C47.9451 41.7879 47.4526 41.8672 44.6613 41.8653C40.0761 41.8623 40.0452 41.8489 36.8995 38.5031C35.3035 36.8056 34.7395 36.5166 34.1577 37.0983C33.8288 37.4272 33.6958 37.8662 33.4284 39.5055C33.1014 41.5098 32.8155 41.7338 30.5724 41.7437C27.4389 41.7574 25.1381 41.0863 22.6578 39.4351C19.1961 37.1306 15.5489 31.8948 11.9888 24.1198C11.1356 22.2564 11.0308 21.7263 11.435 21.3221C11.6582 21.0989 11.8246 21.0874 14.8105 21.0898C18.9907 21.0932 18.8891 21.0473 19.8732 23.3767C20.875 25.7481 22.6913 28.7017 23.8983 29.9221C24.5848 30.6164 24.9004 30.7344 25.2189 30.4158C25.6175 30.0174 25.7 29.3129 25.7 26.3119C25.7 23.7476 25.6743 23.3296 25.4963 23.0044C25.2407 22.5372 24.7814 22.2059 24.1554 22.0374C23.4287 21.8417 23.3833 21.4707 24.0162 20.8964C24.4714 20.4834 24.8202 20.3556 25.7512 20.2605C26.8325 20.1501 31.1407 20.246 31.842 20.3962Z" fill="#4169E1"/>
</svg>

<svg width="60" height="61" fill="none" xmlns="http://www.w3.org/2000/svg"><circle cx="30.057" cy="30.056" r="23.482" fill="#fff"/><path fill-rule="evenodd" clip-rule="evenodd" d="M27.99.028c-4.195.312-8.355 1.496-11.976 3.407C8.84 7.221 3.403 13.863 1.162 21.573.329 24.439 0 26.828 0 30.01c0 3.182.329 5.571 1.162 8.438 2.327 8.008 8.088 14.835 15.615 18.505.969.473 2.21 1.02 2.76 1.219 6.064 2.185 12.398 2.448 18.49.767C46.226 56.677 53.173 50.9 56.93 43.22c1.313-2.685 2.165-5.286 2.635-8.045 1.298-7.627-.328-15.397-4.545-21.72C50.141 6.142 42.725 1.487 33.977.248 32.726.071 29.168-.06 27.99.028zm3.852 20.368c.68.146 1.017.385 1.27.904.19.39.21.829.215 4.425.004 3.597.025 4.03.213 4.373.39.714.832.52 1.995-.88 1.47-1.767 2.702-3.853 3.718-6.294.44-1.06.617-1.354.947-1.576l.405-.273 3.722.036c3.568.034 3.736.045 4.054.281.909.677.218 2.358-2.483 6.035-3.153 4.293-3.34 4.603-3.177 5.257.047.185.927 1.173 2.165 2.43 2.017 2.047 3.394 3.707 3.725 4.49.269.637.206 1.251-.17 1.653-.496.53-.988.61-3.78.608-4.585-.003-4.616-.016-7.761-3.362-1.596-1.697-2.16-1.986-2.742-1.405-.33.33-.462.768-.73 2.407-.327 2.005-.612 2.229-2.856 2.239-3.133.013-5.434-.658-7.914-2.309-3.462-2.304-7.11-7.54-10.67-15.315-.852-1.864-.957-2.394-.553-2.798.223-.223.39-.235 3.375-.232 4.18.003 4.08-.043 5.063 2.287 1.002 2.371 2.818 5.325 4.025 6.545.687.694 1.002.812 1.32.494.4-.399.482-1.103.482-4.104 0-2.564-.026-2.982-.204-3.308-.255-.467-.715-.798-1.34-.967-.727-.195-.773-.566-.14-1.14.455-.414.804-.541 1.735-.636 1.081-.11 5.39-.015 6.091.135z" fill="#4169E1"/></svg>
